X:1
T:In Old Pod-Auger Times
M:6/8
L:1/8
K:G
 G2 A-| B2 B BAG| A2 d d2 c| BGG AFF| G3- G2 d| e2 d e2 f| gga g2 e|\
 dBB B2 G| A3- A2d/2-d/2| e2 d e2 f| g2 a g2 e| d2 B B2 G| d3- d2 D/2D/2|\
 GGG BAG| A2 d d2 c| BGG A2 F| G3- G2 d/2d/2| e2 d e2 f| g2 a g2 e|\
 d2 B B2 G| d3- d2 D/2D/2| GGG BAG| A2 d d2 c|B-G G A2 F| G3- G2||\

